X:244
T: Wer wohl ein reicher Bauer will sein (3-47), S. 138
N: P1019
O: Lothringen
S: PINCK, Louis: Verklingende Weisen, Bd3, Metz 1933]
R: Berufslied]
M: 2/2
L: 1/8
K: G
=F2 | _B2B2B2=F2 | _BBB2B2
=F2 | _BBc2ddc2 | =F2A2_B4 | z4
_B4 | d2c2_BBd2 | c4G2
G2 | _E2=F2G2E2 | G2G2G2
=F2 | _B2B2GG=F2 | G4G2

